X:645
T:
S:Efter »Florsen» i Burs.
R:kadrilj
O:Gotland, Burs
M:C
L:1/16
K:D
DD|D2FF F2AA A2dd d4|f2f2 fafd A4 a4|g3f edcB A2ce a4|g3f edcB A2d2 d2:|
|:A2|dfaf dfaf dfaf d4|egbg egbg egbg e4|dfaf dfaf dfaf dfaf|gfed cBcd e2AA A2 DD|
D2FF F2AA c2dd d4|f2f2 fafd A4 a4|g3f edcB A2ce a4|g3f edcB A2d2 d2:|
|:A2|d2e2f2g2 f4 g3f|e2g2f2e2 d6 A2|d2e2f2g2 e2a2^g2a2|b3a ^g2fg a4 z2fg|
a2a^g a2a^g a2d'2 f4|g2gf g2gf g2a2 f3e|d2e2f2g2 f4 g3f|e2g2f2e2 d2:|

